Yaru++/apps/scalable/gcstar.svg

<svg height="256" width="256" xmlns="http://www.w3.org/2000/svg" xmlns:xlink="http://www.w3.org/1999/xlink">
  <filter id="filter11191" color-interpolation-filters="sRGB" height="1.024" width="1.024" x="-.01" y="-.01">
    <feGaussianBlur stdDeviation="1.12"/>
  </filter>
  <filter id="filter11210" color-interpolation-filters="sRGB" height="1.096" width="1.096" x="-.05" y="-.05">
    <feGaussianBlur stdDeviation="4.48"/>
  </filter>
  <circle cx="128.752" cy="127.248" filter="url(#filter11210)" opacity=".1" r="112"/>
  <circle cx="128.752" cy="125.248" filter="url(#filter11191)" opacity=".1" r="112"/>
  <circle cx="128.752" cy="123.248" opacity=".1" r="114"/>
  <circle cx="128.752" cy="123.248" fill="#2f5fdd" r="112"/>
  <path d="m16.751953 123.24805c.219543 2.63999.266428 5.98571.402344 8.91797a112 112 0 0 0 1.226562 10.11914 112 112 0 0 0 2.453125 10.92187 112 112 0 0 0 3.529297 10.625 112 112 0 0 0 4.574219 10.21875 112 112 0 0 0 5.570312 9.71094 112 112 0 0 0 6.511719 9.10742 112 112 0 0 0 7.388672 8.41016 112 112 0 0 0 8.191406 7.63086 112 112 0 0 0 8.91211 6.77539 112 112 0 0 0 9.544922 5.85156 112 112 0 0 0 10.080078 4.86914 112 112 0 0 0 10.517578 3.83984 112 112 0 0 0 10.847653 2.76953 112 112 0 0 0 11.06836 1.67188 112 112 0 0 0 11.05664.55469c1.00274-.00122 2.05955-.08622 3.07227-.09961a112 112 0 0 0 4.97461-.17578 112 112 0 0 0 11.11523-1.34766 112 112 0 0 0 10.92188-2.45312 112 112 0 0 0 10.625-3.5293 112 112 0 0 0 10.21875-4.57422 112 112 0 0 0 9.71093-5.57031 112 112 0 0 0 9.10743-6.51172 112 112 0 0 0 8.41015-7.38867 112 112 0 0 0 7.63086-8.19141 112 112 0 0 0 6.77539-8.91211 112 112 0 0 0 5.85157-9.54492 112 112 0 0 0 4.86914-10.08008 112 112 0 0 0 3.83984-10.51758 112 112 0 0 0 2.76953-10.84765 112 112 0 0 0 1.63867-10.83008c-.1976-4.0827-.28991-8.00416-.00586-11.41992z" fill="#fff" opacity=".1"/>
  <path d="m128.752 11.248006a112 112 0 0 0 -112.000001 111.999994 112 112 0 0 0 .04102 1.16992 112 112 0 0 1 111.958981-111.169914 112 112 0 0 1 111.95898 110.830074 112 112 0 0 0 .041-.83008 112 112 0 0 0 -112-111.999994z" fill="#fff" opacity=".3"/>
  <path d="m128.752 235.248a112 112 0 0 1 -112.000001-112 112 112 0 0 1 .04102-1.16992 112 112 0 0 0 111.958981 111.16992 112 112 0 0 0 111.95898-110.83008 112 112 0 0 1 .041.83008 112 112 0 0 1 -112 112z" opacity=".2"/>
  <path d="m128.75201 35.554248a87.789495 87.693756 0 0 0 -87.789511 87.693782 87.789495 87.693756 0 0 0 87.789511 87.69371 87.789495 87.693756 0 0 0 87.78949-87.69371 87.789495 87.693756 0 0 0 -87.78949-87.693782zm-41.937051 61.385627a26.542916 21.659059 76.700549 0 1 23.334451 20.572975 26.542916 21.659059 76.700549 0 1 -14.178001 31.41192 26.542916 21.659059 76.700549 0 1 -27.62646-19.94157 26.542916 21.659059 76.700549 0 1 14.1771-31.411943 26.542916 21.659059 76.700549 0 1 4.29291-.631382zm83.874091 0a21.659059 26.542916 13.299451 0 1 4.2929.631382 21.659059 26.542916 13.299451 0 1 14.17803 31.411943 21.659059 26.542916 13.299451 0 1 -27.62738 19.94157 21.659059 26.542916 13.299451 0 1 -14.178-31.41192 21.659059 26.542916 13.299451 0 1 23.33445-20.572975z" fill="#ffda64"/>
  <path d="m128.75195 35.554688a87.789495 87.693756 0 0 0 -87.789059 87.693362 87.789495 87.693756 0 0 0 .041015.82812 87.789495 87.693756 0 0 1 87.748044-86.521482 87.789495 87.693756 0 0 1 87.74805 86.865232 87.789495 87.693756 0 0 0 .04102-1.17187 87.789495 87.693756 0 0 0 -87.78907-87.693362zm-61.419919 86.363282a26.542916 21.659059 76.700549 0 0 1.013672 9.06445 26.542916 21.659059 76.700549 0 0 27.625 19.94141 26.542916 21.659059 76.700549 0 0 15.191407-24.35156 26.542916 21.659059 76.700549 0 1 -15.191407 22.35156 26.542916 21.659059 76.700549 0 1 -27.625-19.94141 26.542916 21.659059 76.700549 0 1 -1.013672-7.06445zm122.849609.19141a21.659059 26.542916 13.299451 0 1 -1.02148 6.87304 21.659059 26.542916 13.299451 0 1 -27.62696 19.94141 21.659059 26.542916 13.299451 0 1 -15.19922-22.52344 21.659059 26.542916 13.299451 0 0 15.19922 24.52344 21.659059 26.542916 13.299451 0 0 27.62696-19.94141 21.659059 26.542916 13.299451 0 0 1.02148-8.87304z" fill="#fff" opacity=".3"/>
  <path d="m86.806641 94.939453a26.542916 21.659059 76.700549 0 0 -4.285157.630859 26.542916 21.659059 76.700549 0 0 -15.189453 24.347658 26.542916 21.659059 76.700549 0 1 15.189453-22.347658 26.542916 21.659059 76.700549 0 1 4.292969-.630859 26.542916 21.659059 76.700549 0 1 23.333987 20.574217 26.542916 21.659059 76.700549 0 1 1.01367 7.0586 26.542916 21.659059 76.700549 0 0 -1.01367-9.0586 26.542916 21.659059 76.700549 0 0 -23.333987-20.574217 26.542916 21.659059 76.700549 0 0 -.007812 0zm83.882809 0a21.659059 26.542916 13.299451 0 0 -23.33398 20.574217 21.659059 26.542916 13.299451 0 0 -1.02149 8.88672 21.659059 26.542916 13.299451 0 1 1.02149-6.88672 21.659059 26.542916 13.299451 0 1 23.33398-20.574217 21.659059 26.542916 13.299451 0 1 4.29297.630859 21.659059 26.542916 13.299451 0 1 15.19922 22.539068 21.659059 26.542916 13.299451 0 0 -15.19922-24.539068 21.659059 26.542916 13.299451 0 0 -4.29297-.630859zm-129.685544 27.136717a87.789495 87.693756 0 0 0 -.041015 1.17188 87.789495 87.693756 0 0 0 87.789059 87.69336 87.789495 87.693756 0 0 0 87.78907-87.69336 87.789495 87.693756 0 0 0 -.04102-.82813 87.789495 87.693756 0 0 1 -87.74805 86.52149 87.789495 87.693756 0 0 1 -87.748044-86.86524z" opacity=".2"/>
</svg>

<svg xmlns="http://www.w3.org/2000/svg" xmlns:osb="http://www.openswatchbook.org/uri/2009/osb" xmlns:xlink="http://www.w3.org/1999/xlink" width="256" height="256" version="1.1">
 <defs>
  <linearGradient id="linearGradient5606" osb:paint="solid">
   <stop id="stop5608" offset="0" style="stop-color:#000000"/>
  </linearGradient>
  <linearGradient id="linearGradient4526" osb:paint="solid">
   <stop id="stop4528" offset="0" style="stop-color:#ffffff"/>
  </linearGradient>
  <linearGradient id="linearGradient3600-4" osb:paint="gradient">
   <stop id="stop3602-7" offset="0" style="stop-color:#f4f4f4"/>
   <stop id="stop3604-6" offset="1" style="stop-color:#dbdbdb"/>
  </linearGradient>
  <clipPath id="clipPath1094" clipPathUnits="userSpaceOnUse">
   <path style="fill:url(#linearGradient1098)" d="M 188.96875,43.999998 C 261.6174,43.999998 272,54.356613 272,126.9375 v 58.125 C 272,257.64309 261.6174,268 188.96875,268 h -73.9375 C 42.3826,268 32,257.64309 32,185.0625 v -58.125 C 32,54.356613 42.3826,43.999998 115.03125,43.999998 Z"/>
  </clipPath>
  <clipPath id="clipPath1100" clipPathUnits="userSpaceOnUse">
   <path style="fill:url(#linearGradient1104)" d="M 188.96875,44 C 261.6174,44 272,54.356615 272,126.9375 v 58.125 C 272,257.64309 261.6174,268 188.96875,268 h -73.9375 C 42.3826,268 32,257.64309 32,185.0625 v -58.125 C 32,54.356615 42.3826,44 115.03125,44 Z"/>
  </clipPath>
  <filter style="color-interpolation-filters:sRGB" id="filter11191" width="1.024" height="1.024" x="-.01" y="-.01">
   <feGaussianBlur id="feGaussianBlur11193" stdDeviation="1.12"/>
  </filter>
  <filter style="color-interpolation-filters:sRGB" id="filter11210" width="1.096" height="1.096" x="-.05" y="-.05">
   <feGaussianBlur id="feGaussianBlur11212" stdDeviation="4.48"/>
  </filter>
  <linearGradient id="linearGradient1490" x1="33.076" x2="91.624" y1="210.425" y2="262.805" gradientTransform="matrix(2.1947377,0,0,2.1923444,-10.836741,-394.1216)" gradientUnits="userSpaceOnUse" xlink:href="#linearGradient1488"/>
  <linearGradient id="linearGradient1488">
   <stop style="stop-color:#ff8b00" id="stop1484" offset="0"/>
   <stop style="stop-color:#ffda2c" id="stop1486" offset="1"/>
  </linearGradient>
 </defs>
 <circle style="opacity:0.1;filter:url(#filter11210)" cx="128.752" cy="127.248" r="112"/>
 <circle style="opacity:0.1;filter:url(#filter11191)" cx="128.752" cy="125.248" r="112"/>
 <circle style="opacity:0.1" cx="128.752" cy="123.248" r="114"/>
 <circle style="fill:#2f5fdd" cx="128.752" cy="123.248" r="112"/>
 <path style="opacity:0.1;fill:#ffffff" d="M 16.751953 123.24805 C 16.971496 125.88804 17.018381 129.23376 17.154297 132.16602 A 112 112 0 0 0 18.380859 142.28516 A 112 112 0 0 0 20.833984 153.20703 A 112 112 0 0 0 24.363281 163.83203 A 112 112 0 0 0 28.9375 174.05078 A 112 112 0 0 0 34.507812 183.76172 A 112 112 0 0 0 41.019531 192.86914 A 112 112 0 0 0 48.408203 201.2793 A 112 112 0 0 0 56.599609 208.91016 A 112 112 0 0 0 65.511719 215.68555 A 112 112 0 0 0 75.056641 221.53711 A 112 112 0 0 0 85.136719 226.40625 A 112 112 0 0 0 95.654297 230.24609 A 112 112 0 0 0 106.50195 233.01562 A 112 112 0 0 0 117.57031 234.6875 A 112 112 0 0 0 128.62695 235.24219 C 129.62969 235.24097 130.6865 235.15597 131.69922 235.14258 A 112 112 0 0 0 136.67383 234.9668 A 112 112 0 0 0 147.78906 233.61914 A 112 112 0 0 0 158.71094 231.16602 A 112 112 0 0 0 169.33594 227.63672 A 112 112 0 0 0 179.55469 223.0625 A 112 112 0 0 0 189.26562 217.49219 A 112 112 0 0 0 198.37305 210.98047 A 112 112 0 0 0 206.7832 203.5918 A 112 112 0 0 0 214.41406 195.40039 A 112 112 0 0 0 221.18945 186.48828 A 112 112 0 0 0 227.04102 176.94336 A 112 112 0 0 0 231.91016 166.86328 A 112 112 0 0 0 235.75 156.3457 A 112 112 0 0 0 238.51953 145.49805 A 112 112 0 0 0 240.1582 134.66797 C 239.9606 130.58527 239.86829 126.66381 240.15234 123.24805 L 16.751953 123.24805 z"/>
 <path style="opacity:0.3;fill:#ffffff" d="M 128.752,11.248006 A 112,112 0 0 0 16.751999,123.248 112,112 0 0 0 16.793019,124.41792 112,112 0 0 1 128.752,13.248006 112,112 0 0 1 240.71098,124.07808 a 112,112 0 0 0 0.041,-0.83008 112,112 0 0 0 -112,-111.999994 z"/>
 <path style="opacity:0.2" d="m 128.752,235.248 a 112,112 0 0 1 -112.000001,-112 112,112 0 0 1 0.04102,-1.16992 A 112,112 0 0 0 128.752,233.248 112,112 0 0 0 240.71098,122.41792 a 112,112 0 0 1 0.041,0.83008 112,112 0 0 1 -112,112 z"/>
 <path style="fill:#ffda64" d="M 128.75201,35.554248 A 87.789495,87.693756 0 0 0 40.962499,123.24803 87.789495,87.693756 0 0 0 128.75201,210.94174 87.789495,87.693756 0 0 0 216.5415,123.24803 87.789495,87.693756 0 0 0 128.75201,35.554248 Z M 86.814959,96.939875 a 26.542916,21.659059 76.700549 0 1 23.334451,20.572975 26.542916,21.659059 76.700549 0 1 -14.178001,31.41192 26.542916,21.659059 76.700549 0 1 -27.62646,-19.94157 26.542916,21.659059 76.700549 0 1 14.1771,-31.411943 26.542916,21.659059 76.700549 0 1 4.29291,-0.631382 z m 83.874091,0 a 21.659059,26.542916 13.299451 0 1 4.2929,0.631382 21.659059,26.542916 13.299451 0 1 14.17803,31.411943 21.659059,26.542916 13.299451 0 1 -27.62738,19.94157 21.659059,26.542916 13.299451 0 1 -14.178,-31.41192 21.659059,26.542916 13.299451 0 1 23.33445,-20.572975 z"/>
 <path style="fill:#ffffff;opacity:0.3" d="M 128.75195 35.554688 A 87.789495 87.693756 0 0 0 40.962891 123.24805 A 87.789495 87.693756 0 0 0 41.003906 124.07617 A 87.789495 87.693756 0 0 1 128.75195 37.554688 A 87.789495 87.693756 0 0 1 216.5 124.41992 A 87.789495 87.693756 0 0 0 216.54102 123.24805 A 87.789495 87.693756 0 0 0 128.75195 35.554688 z M 67.332031 121.91797 A 26.542916 21.659059 76.700549 0 0 68.345703 130.98242 A 26.542916 21.659059 76.700549 0 0 95.970703 150.92383 A 26.542916 21.659059 76.700549 0 0 111.16211 126.57227 A 26.542916 21.659059 76.700549 0 1 95.970703 148.92383 A 26.542916 21.659059 76.700549 0 1 68.345703 128.98242 A 26.542916 21.659059 76.700549 0 1 67.332031 121.91797 z M 190.18164 122.10938 A 21.659059 26.542916 13.299451 0 1 189.16016 128.98242 A 21.659059 26.542916 13.299451 0 1 161.5332 148.92383 A 21.659059 26.542916 13.299451 0 1 146.33398 126.40039 A 21.659059 26.542916 13.299451 0 0 161.5332 150.92383 A 21.659059 26.542916 13.299451 0 0 189.16016 130.98242 A 21.659059 26.542916 13.299451 0 0 190.18164 122.10938 z"/>
 <path style="opacity:0.2" d="M 86.806641 94.939453 A 26.542916 21.659059 76.700549 0 0 82.521484 95.570312 A 26.542916 21.659059 76.700549 0 0 67.332031 119.91797 A 26.542916 21.659059 76.700549 0 1 82.521484 97.570312 A 26.542916 21.659059 76.700549 0 1 86.814453 96.939453 A 26.542916 21.659059 76.700549 0 1 110.14844 117.51367 A 26.542916 21.659059 76.700549 0 1 111.16211 124.57227 A 26.542916 21.659059 76.700549 0 0 110.14844 115.51367 A 26.542916 21.659059 76.700549 0 0 86.814453 94.939453 A 26.542916 21.659059 76.700549 0 0 86.806641 94.939453 z M 170.68945 94.939453 A 21.659059 26.542916 13.299451 0 0 147.35547 115.51367 A 21.659059 26.542916 13.299451 0 0 146.33398 124.40039 A 21.659059 26.542916 13.299451 0 1 147.35547 117.51367 A 21.659059 26.542916 13.299451 0 1 170.68945 96.939453 A 21.659059 26.542916 13.299451 0 1 174.98242 97.570312 A 21.659059 26.542916 13.299451 0 1 190.18164 120.10938 A 21.659059 26.542916 13.299451 0 0 174.98242 95.570312 A 21.659059 26.542916 13.299451 0 0 170.68945 94.939453 z M 41.003906 122.07617 A 87.789495 87.693756 0 0 0 40.962891 123.24805 A 87.789495 87.693756 0 0 0 128.75195 210.94141 A 87.789495 87.693756 0 0 0 216.54102 123.24805 A 87.789495 87.693756 0 0 0 216.5 122.41992 A 87.789495 87.693756 0 0 1 128.75195 208.94141 A 87.789495 87.693756 0 0 1 41.003906 122.07617 z"/>
</svg>
